packages/icons/src/emoji/svg/coffee.svg

<svg width="120" height="120" viewBox="0 0 120 120" fill="none" xmlns="http://www.w3.org/2000/svg">
<g clip-path="url(#clip0_212_206)">
<path d="M49.2562 39.8718C26.925 39.8718 4.59375 48.3281 4.59375 65.2218C4.59375 84.0468 13.425 117.375 49.2562 117.375C85.0875 117.375 93.9187 84.0468 93.9187 65.2218C93.9187 48.3281 71.5875 39.8718 49.2562 39.8718Z" fill="#E0E0E0"/>
<path d="M31.7534 46.4345C27.6471 44.7282 24.169 40.2188 23.8784 36.3845C23.2409 28.1251 27.8909 25.172 27.8909 17.972C27.8909 11.9345 26.869 8.7657 24.8628 7.1157C24.2815 6.63758 24.1878 6.4782 24.244 6.34695C24.3284 6.1782 24.3284 6.07508 25.219 6.2907C28.8659 7.18133 34.7909 10.5938 34.969 17.7845C35.1565 25.4345 30.9659 27.2063 30.3378 35.5126C30.1034 38.6063 30.094 42.9657 32.1284 45.797C32.3815 46.1438 32.419 46.2845 32.4096 46.3782C32.3909 46.5095 32.1659 46.5845 31.7534 46.4345ZM52.3315 42.6001C48.2253 40.8938 44.7471 36.3845 44.4565 32.5501C43.819 24.2907 48.469 21.3376 48.469 14.1376C48.469 8.10008 47.4471 4.93133 45.4409 3.28133C44.8596 2.81258 44.7659 2.6532 44.8221 2.52195C44.9065 2.3532 44.9065 2.25008 45.7971 2.4657C49.444 3.35633 55.369 6.76883 55.5471 13.9595C55.7346 21.6095 51.544 23.3813 50.9159 31.6876C50.6815 34.7813 50.6721 39.1407 52.7065 41.972C52.9596 42.3188 52.9971 42.4595 52.9878 42.5532C52.969 42.6751 52.744 42.7595 52.3315 42.6001ZM71.4659 47.2126C67.3596 45.5063 63.8815 40.997 63.5909 37.1626C62.9534 28.9032 67.6034 25.9501 67.6034 18.7501C67.6034 12.7126 66.5815 9.54383 64.5753 7.89383C63.994 7.4157 63.9003 7.25633 63.9565 7.12508C64.0409 6.95633 64.0409 6.8532 64.9315 7.06883C68.5784 7.95945 74.5034 11.372 74.6815 18.5626C74.869 26.2126 70.6784 27.9845 70.0503 36.2907C69.8159 39.3845 69.8065 43.7438 71.8409 46.5751C72.094 46.922 72.1315 47.0626 72.1221 47.1563C72.1034 47.2876 71.8784 47.372 71.4659 47.2126Z" fill="#E0E0E0"/>
<path d="M49.2561 85.228C70.0548 85.228 86.9154 76.3717 86.9154 65.4468C86.9154 54.5219 70.0548 45.6655 49.2561 45.6655C28.4574 45.6655 11.5967 54.5219 11.5967 65.4468C11.5967 76.3717 28.4574 85.228 49.2561 85.228Z" fill="#90A4AE"/>
<mask id="mask0_212_206" style="mask-type:luminance" maskUnits="userSpaceOnUse" x="11" y="45" width="76" height="41">
<path d="M49.2561 85.228C70.0548 85.228 86.9154 76.3717 86.9154 65.4468C86.9154 54.5219 70.0548 45.6655 49.2561 45.6655C28.4574 45.6655 11.5967 54.5219 11.5967 65.4468C11.5967 76.3717 28.4574 85.228 49.2561 85.228Z" fill="white"/>
</mask>
<g mask="url(#mask0_212_206)">
<path d="M49.2561 94.9968C70.0548 94.9968 86.9154 86.1405 86.9154 75.2156C86.9154 64.2907 70.0548 55.4343 49.2561 55.4343C28.4574 55.4343 11.5967 64.2907 11.5967 75.2156C11.5967 86.1405 28.4574 94.9968 49.2561 94.9968Z" fill="#855C52"/>
</g>
<path d="M76.2748 102.844C75.6561 102.844 75.2998 102.834 75.2717 102.825C74.5961 102.782 73.9357 102.606 73.3281 102.308C72.7206 102.009 72.1779 101.594 71.7312 101.085C71.2845 100.577 70.9424 99.985 70.7247 99.3441C70.507 98.7031 70.4178 98.0255 70.4623 97.3501C70.5034 96.6735 70.6779 96.0117 70.9758 95.4028C71.2736 94.7939 71.6888 94.2499 72.1977 93.8021C72.7065 93.3542 73.2988 93.0114 73.9406 92.7933C74.5824 92.5753 75.261 92.4862 75.9373 92.5313C76.1811 92.5313 100.603 92.7657 104.465 79.5376C105.384 76.397 105.29 74.0438 104.194 72.5438C103.228 71.222 100.35 68.9907 91.9592 68.8032C91.2819 68.7888 90.6142 68.6411 89.994 68.3685C89.3739 68.0959 88.8136 67.7037 88.3452 67.2143C87.8768 66.725 87.5094 66.1481 87.264 65.5167C87.0187 64.8853 86.9003 64.2117 86.9154 63.5345C86.9811 60.6845 89.3623 58.4438 92.1842 58.4907C101.962 58.697 108.797 61.3782 112.519 66.4407C115.612 70.6595 116.231 76.0313 114.365 82.4157C108.694 101.794 81.8342 102.844 76.2748 102.844Z" fill="#E0E0E0"/>
<path d="M42.4778 66.0657C43.6403 65.9251 44.7841 64.8189 44.381 63.872C44.0528 63.0845 42.9091 62.897 41.9435 62.8595C38.0997 62.7001 31.5372 64.6407 25.9872 67.2939C25.2278 67.6501 23.906 68.6064 23.7091 69.3657C23.4935 70.1814 24.2247 70.8376 25.0497 70.9126C25.8747 70.9876 26.7466 70.6501 27.5716 70.3126C34.4435 67.5564 36.6466 66.8345 42.4778 66.0657Z" fill="#BCAAA4"/>
</g>
<defs>
<clipPath id="clip0_212_206">
<rect width="120" height="120" fill="white"/>
</clipPath>
</defs>
</svg>

<svg xmlns="http://www.w3.org/2000/svg" fill="none" aria-hidden="true" data-slot="icon" viewBox="0 0 120 120"><g clip-path="url(#a)"><path fill="#E0E0E0" d="M49.256 39.872c-22.331 0-44.662 8.456-44.662 25.35 0 18.825 8.831 52.153 44.662 52.153S93.92 84.047 93.92 65.222c0-16.894-22.331-25.35-44.663-25.35"/><path fill="#E0E0E0" d="M31.753 46.435c-4.106-1.707-7.584-6.216-7.875-10.05-.637-8.26 4.013-11.213 4.013-18.413 0-6.038-1.022-9.206-3.028-10.856-.581-.478-.675-.638-.619-.769.084-.169.084-.272.975-.056 3.647.89 9.572 4.303 9.75 11.494.188 7.65-4.003 9.421-4.631 17.728-.235 3.093-.244 7.453 1.79 10.284.254.347.291.488.282.581-.02.132-.244.206-.657.056M52.332 42.6c-4.107-1.706-7.585-6.215-7.876-10.05-.637-8.26 4.013-11.212 4.013-18.412 0-6.038-1.022-9.207-3.028-10.857-.581-.468-.675-.628-.619-.76.084-.168.084-.27.975-.055 3.647.89 9.572 4.303 9.75 11.494.188 7.65-4.003 9.421-4.631 17.728-.234 3.093-.244 7.453 1.79 10.284.254.347.291.487.282.581-.019.122-.244.207-.657.047m19.134 4.613c-4.106-1.707-7.584-6.216-7.875-10.05-.638-8.26 4.012-11.213 4.012-18.413 0-6.037-1.021-9.206-3.028-10.856-.581-.478-.675-.638-.619-.769.085-.169.085-.272.975-.056 3.647.89 9.572 4.303 9.75 11.494.188 7.65-4.003 9.422-4.63 17.728-.235 3.094-.245 7.453 1.79 10.284.253.347.29.488.281.581-.019.132-.244.216-.656.057"/><path fill="#90A4AE" d="M49.256 85.228c20.799 0 37.66-8.856 37.66-19.781s-16.861-19.781-37.66-19.781-37.66 8.856-37.66 19.78c0 10.926 16.861 19.782 37.66 19.782"/><mask id="b" width="76" height="41" x="11" y="45" maskUnits="userSpaceOnUse" style="mask-type:luminance"><path fill="#fff" d="M49.256 85.228c20.799 0 37.66-8.856 37.66-19.781s-16.861-19.781-37.66-19.781-37.66 8.856-37.66 19.78c0 10.926 16.861 19.782 37.66 19.782"/></mask><g mask="url(#b)"><path fill="#855C52" d="M49.256 94.997c20.799 0 37.66-8.856 37.66-19.781s-16.861-19.782-37.66-19.782-37.66 8.857-37.66 19.782 16.861 19.78 37.66 19.78"/></g><path fill="#E0E0E0" d="M76.275 102.844c-.619 0-.975-.01-1.003-.019a5.16 5.16 0 0 1-3.54-1.74 5.14 5.14 0 0 1-1.27-3.735 5.14 5.14 0 0 1 5.475-4.819c.244 0 24.666.235 28.528-12.993.919-3.141.825-5.494-.271-6.994-.966-1.322-3.844-3.553-12.235-3.74a5.156 5.156 0 0 1-5.044-5.27c.066-2.85 2.447-5.09 5.27-5.043 9.777.206 16.612 2.887 20.334 7.95 3.093 4.218 3.712 9.59 1.846 15.975-5.671 19.378-32.53 20.428-38.09 20.428"/><path fill="#BCAAA4" d="M42.478 66.066c1.162-.14 2.306-1.247 1.903-2.194-.328-.788-1.472-.975-2.437-1.013-3.844-.159-10.407 1.782-15.957 4.435-.76.356-2.081 1.312-2.278 2.072-.215.815.516 1.472 1.34 1.547.826.075 1.698-.263 2.523-.6 6.872-2.757 9.075-3.478 14.906-4.247"/></g><defs><clipPath id="a"><path fill="#fff" d="M0 0h120v120H0z"/></clipPath></defs></svg>
